X:111
M:C|
L:1/8
Q:1/2=80
K:F
fage fage|fafa c2c2|dfAf Bfdf|cBAG A2F2|fage fage|fafa c2c2|
dfAf Bfdf|BCAG F4::AcFc GcAc|BdGd BdGd|AcFc GcAc|

